assets/mail.stack.fill.svg

<svg width="34" height="32" viewBox="0 0 34 32" fill="none" xmlns="http://www.w3.org/2000/svg">
<g clip-path="url(#clip0_42_499)">
<path d="M3.97614 20.3543C4.02421 20.3589 4.07591 20.3611 4.13086 20.3611H12.4219C13.0078 20.3611 13.2812 20.7908 13.2812 21.2693V21.3279C13.2812 22.9197 14.5215 24.4725 16.3477 24.4725C18.1836 24.4725 19.4141 22.9197 19.4141 21.3279V21.2693C19.4141 20.7908 19.6973 20.3611 20.2734 20.3611H28.584C28.6396 20.3611 28.6921 20.3588 28.7411 20.3542C29.6223 20.3332 30.3737 20.0953 30.9768 19.6773C31.1184 20.088 31.1426 20.5757 31.1426 21.1912V26.5135C31.1426 28.8768 29.873 30.1365 27.3438 30.1365H5.36133C2.8418 30.1365 1.5625 28.8865 1.5625 26.5135V21.1912C1.5625 20.5718 1.58348 20.0818 1.72683 19.6694C2.33462 20.0924 3.09134 20.3333 3.97614 20.3543Z" fill="#68CB3A" fill-opacity="0.85"/>
<path d="M5.36133 18.7988H27.3438C29.873 18.7988 31.1426 17.5488 31.1426 15.1758V9.85353C31.1426 8.81837 31.0742 8.14453 30.498 7.58789L25.957 3.22266C24.6387 1.97266 23.6621 1.55273 21.8652 1.55273H10.8398C9.04297 1.55273 8.06641 1.97266 6.74805 3.22266L2.20703 7.58789C1.62109 8.14453 1.5625 8.81837 1.5625 9.85353V15.1758C1.5625 17.5488 2.8418 18.7988 5.36133 18.7988ZM16.3477 13.1348C14.5215 13.1348 13.2812 11.5918 13.2812 9.99023V9.93164C13.2812 9.45312 13.0078 9.02344 12.4219 9.02344H4.13086C3.50586 9.02344 3.30078 8.73047 3.79883 8.25195L8.07617 4.14062C8.91602 3.33984 9.48242 3.07617 10.6934 3.07617H22.002C23.2227 3.07617 23.7891 3.33984 24.6289 4.14062L28.9062 8.25195C29.4238 8.75 29.1895 9.02344 28.584 9.02344H20.2734C19.6973 9.02344 19.4141 9.45312 19.4141 9.93164V9.99023C19.4141 11.5918 18.1836 13.1348 16.3477 13.1348Z" fill="#68CB3A" fill-opacity="0.85"/>
</g>
<defs>
<clipPath id="clip0_42_499">
<rect width="33.0664" height="31.6699" fill="white"/>
</clipPath>
</defs>
</svg>

<svg xmlns="http://www.w3.org/2000/svg" width="34" height="32" fill="none"><g fill="#68CB3A" fill-opacity=".85" clip-path="url(#a)"><path d="M3.976 20.354q.072.007.155.007h8.29c.587 0 .86.43.86.908v.059c0 1.592 1.24 3.145 3.067 3.145 1.836 0 3.066-1.553 3.066-3.145v-.059c0-.478.283-.908.86-.908h8.31q.084 0 .157-.007c.881-.02 1.633-.259 2.236-.677.141.411.166.899.166 1.514v5.323c0 2.363-1.27 3.623-3.8 3.623H5.362c-2.52 0-3.798-1.25-3.798-3.623V21.19c0-.62.02-1.11.164-1.522.608.423 1.364.664 2.25.685m1.383-1.554h21.983c2.529 0 3.799-1.25 3.799-3.623V9.854c0-1.036-.069-1.71-.645-2.266l-4.541-4.365c-1.318-1.25-2.295-1.67-4.092-1.67H10.84c-1.797 0-2.774.42-4.092 1.67L2.207 7.588c-.586.557-.644 1.23-.644 2.266v5.322c0 2.373 1.279 3.623 3.798 3.623m10.987-5.664c-1.826 0-3.067-1.543-3.067-3.145v-.058c0-.479-.273-.909-.86-.909h-8.29c-.625 0-.83-.293-.332-.771l4.277-4.111c.84-.801 1.406-1.065 2.617-1.065h11.309c1.22 0 1.787.264 2.627 1.065l4.277 4.111c.518.498.284.771-.322.771h-8.31c-.577 0-.86.43-.86.909v.058c0 1.602-1.23 3.145-3.066 3.145"/></g><defs><clipPath id="a"><path fill="#fff" d="M0 0h33.066v31.67H0z"/></clipPath></defs></svg>
